; generated by PrusaSlicer 2.1.0 on 2019-11-10 at 10:32:27 UTC

; 

; external perimeters extrusion width = 0.45mm
; perimeters extrusion width = 0.45mm
; infill extrusion width = 0.45mm
; solid infill extrusion width = 0.45mm
; top infill extrusion width = 0.40mm
; first layer extrusion width = 0.42mm

M107
M190 S70 ; set bed temperature and wait for it to be reached
M104 S210 ; set temperature
G28 ; home all axes
G1 Z5 F5000 ; lift nozzle
M109 S210 ; set temperature and wait for it to be reached
G21 ; set units to millimeters
G90 ; use absolute coordinates
M82 ; use absolute distances for extrusion
G92 E0
; Filament gcode
G1 Z0.350 F7800.000
G1 E-2.00000 F2400.00000
G92 E0
G1 X76.144 Y90.181 F7800.000
G1 E2.00000 F2400.00000
G1 F1800
G1 X77.448 Y89.380 E2.07681
G1 X78.657 Y88.976 E2.14077
G1 X79.922 Y88.828 E2.20473
G1 X120.006 Y88.828 E4.21636
G1 X121.123 Y88.931 E4.27266
G1 X122.209 Y89.236 E4.32926
G1 X123.221 Y89.734 E4.38586
G1 X124.125 Y90.408 E4.44245
G1 X124.891 Y91.235 E4.49905
G1 X125.495 Y92.188 E4.55565
G1 X125.915 Y93.235 E4.61225
G1 X126.137 Y94.341 E4.66885
G1 X126.172 Y107.037 E5.30603
G1 X126.057 Y108.189 E5.36416
G1 X125.606 Y109.582 E5.43761
G1 X124.841 Y110.829 E5.51106
G1 X123.803 Y111.861 E5.58450
G1 X122.552 Y112.620 E5.65795
G1 X121.343 Y113.024 E5.72191
G1 X120.078 Y113.172 E5.78586
G1 X79.607 Y113.160 E7.81690
G1 X78.781 Y113.051 E7.85876
G1 X77.982 Y112.833 E7.90031
G1 X77.214 Y112.508 E7.94217
G1 X76.496 Y112.082 E7.98403
G1 X75.843 Y111.563 E8.02589
G1 X75.266 Y110.961 E8.06775
G1 X74.775 Y110.286 E8.10961
G1 X74.380 Y109.552 E8.15148
G1 X73.989 Y108.403 E8.21237
G1 X73.831 Y107.194 E8.27357
G1 X73.828 Y94.969 E8.88708
G1 X73.898 Y94.071 E8.93232
G1 X74.312 Y92.603 E9.00883
G1 X75.076 Y91.278 E9.08564
G1 X76.102 Y90.224 E9.15944
G1 E7.15944 F2400.00000
G92 E0
G1 X78.506 Y92.858 F7800.000
G1 E2.00000 F2400.00000
G1 F1800
G1 X79.159 Y92.520 E2.03691
G1 X79.686 Y92.413 E2.06391
G1 X120.356 Y92.417 E4.10495
G1 X120.836 Y92.519 E4.12956
G1 X121.321 Y92.739 E4.15633
G1 X122.032 Y93.373 E4.20410
G1 X122.393 Y93.940 E4.23786
G1 X122.587 Y94.646 E4.27460
G1 X122.587 Y107.354 E4.91235
G1 X122.393 Y108.059 E4.94906
G1 X122.053 Y108.605 E4.98136
G1 X121.494 Y109.142 E5.02023
G1 X120.841 Y109.480 E5.05713
G1 X120.314 Y109.587 E5.08413
G1 X79.646 Y109.587 E7.12506
G1 X78.941 Y109.393 E7.16178
G1 X78.395 Y109.053 E7.19407
G1 X77.858 Y108.494 E7.23294
G1 X77.520 Y107.841 E7.26985
G1 X77.413 Y107.314 E7.29684
G1 X77.413 Y94.646 E7.93257
G1 X77.607 Y93.941 E7.96929
G1 X77.947 Y93.395 E8.00158
G1 X78.463 Y92.900 E8.03744
G1 X78.688 Y93.152 F7800.000
G1 F1800
G1 X79.295 Y92.838 E8.07176
G1 X79.703 Y92.758 E8.09259
G1 X120.337 Y92.762 E10.13184
G1 X120.742 Y92.851 E10.15268
G1 X121.152 Y93.041 E10.17534
G1 X121.783 Y93.612 E10.21809
G1 X122.069 Y94.059 E10.24470
G1 X122.242 Y94.671 E10.27660
G1 X122.242 Y107.329 E10.91187
G1 X122.069 Y107.941 E10.94377
G1 X121.797 Y108.374 E10.96942
G1 X121.312 Y108.848 E11.00344
G1 X120.705 Y109.162 E11.03777
G1 X120.297 Y109.242 E11.05859
G1 X79.671 Y109.242 E13.09748
G1 X79.059 Y109.069 E13.12938
G1 X78.626 Y108.797 E13.15503
G1 X78.152 Y108.312 E13.18905
G1 X77.838 Y107.705 E13.22337
G1 X77.758 Y107.297 E13.24419
G1 X77.758 Y94.671 E13.87787
G1 X77.931 Y94.059 E13.90978
G1 X78.203 Y93.626 E13.93543
G1 X78.645 Y93.194 E13.96643
G1 X78.873 Y93.444 F7800.000
G1 F1800
G1 X79.390 Y93.171 E13.99577
G1 X79.721 Y93.103 E14.01271
G1 X120.316 Y93.106 E16.05003
G1 X120.645 Y93.182 E16.06697
G1 X120.980 Y93.340 E16.08553
G1 X121.533 Y93.850 E16.12330
G1 X121.745 Y94.181 E16.14302
G1 X121.897 Y94.696 E16.16998
G1 X121.897 Y107.304 E16.80268
G1 X121.745 Y107.819 E16.82965
G1 X121.539 Y108.144 E16.84894
G1 X121.127 Y108.556 E16.87821
G1 X120.610 Y108.829 E16.90755
G1 X120.279 Y108.897 E16.92448
G1 X79.696 Y108.897 E18.96117
G1 X79.181 Y108.745 E18.98814
G1 X78.856 Y108.539 E19.00743
G1 X78.444 Y108.127 E19.03670
G1 X78.171 Y107.610 E19.06604
G1 X78.103 Y107.279 E19.08297
G1 X78.103 Y94.696 E19.71446
G1 X78.255 Y94.181 E19.74143
G1 X78.461 Y93.856 E19.76072
G1 X78.831 Y93.486 E19.78698
G1 X79.097 Y93.708 F7800.000
G1 F1800
G1 X79.524 Y93.489 E19.81102
G1 X79.736 Y93.448 E19.82190
G1 X120.296 Y93.451 E21.85743
G1 X120.514 Y93.502 E21.86866
G1 X120.807 Y93.640 E21.88490
G1 X121.281 Y94.087 E21.91759
G1 X121.423 Y94.307 E21.93074
G1 X121.552 Y94.723 E21.95262
G1 X121.552 Y107.277 E22.58261
G1 X121.423 Y107.693 E22.60451
G1 X121.282 Y107.912 E22.61757
G1 X120.903 Y108.292 E22.64453
G1 X120.476 Y108.511 E22.66858
G1 X120.264 Y108.552 E22.67945
G1 X79.723 Y108.552 E24.71399
G1 X79.307 Y108.423 E24.73589
G1 X79.088 Y108.282 E24.74895
G1 X78.708 Y107.903 E24.77591
G1 X78.489 Y107.476 E24.79995
G1 X78.448 Y107.264 E24.81083
G1 X78.448 Y94.723 E25.44016
G1 X78.577 Y94.307 E25.46206
G1 X78.718 Y94.088 E25.47512
G1 X79.055 Y93.750 E25.49907
G1 X79.617 Y93.822 F7800.000
G1 F1800
G1 X79.755 Y93.793 E25.50616
G1 X120.276 Y93.796 E27.53972
G1 X120.383 Y93.821 E27.54523
G1 X120.633 Y93.939 E27.55910
G1 X121.027 Y94.321 E27.58663
G1 X121.104 Y94.438 E27.59364
G1 X121.207 Y94.752 E27.61027
G1 X121.207 Y107.248 E28.23735
G1 X121.104 Y107.562 E28.25399
G1 X121.026 Y107.681 E28.26107
G1 X120.678 Y108.029 E28.28577
G1 X120.383 Y108.178 E28.30240
G1 X120.245 Y108.207 E28.30949
G1 X79.752 Y108.207 E30.34162
G1 X79.438 Y108.104 E30.35825
G1 X79.319 Y108.026 E30.36534
G1 X78.971 Y107.678 E30.39003
G1 X78.822 Y107.383 E30.40667
G1 X78.793 Y107.245 E30.41376
G1 X78.793 Y94.752 E31.04068
G1 X78.896 Y94.438 E31.05731
G1 X78.974 Y94.319 E31.06440
G1 X79.322 Y93.971 E31.08910
G1 X79.564 Y93.849 E31.10272
G1 X79.742 Y94.144 F7800.000
G1 F1800
G1 X120.258 Y94.144 E33.13601
G1 X120.457 Y94.238 E33.14710
G1 X120.771 Y94.552 E33.16937
G1 X120.862 Y94.785 E33.18191
G1 X120.862 Y107.215 E33.80577
G1 X120.771 Y107.448 E33.81831
G1 X120.457 Y107.762 E33.84059
G1 X120.228 Y107.862 E33.85313
G1 X79.785 Y107.862 E35.88284
G1 X79.552 Y107.771 E35.89538
G1 X79.238 Y107.457 E35.91766
G1 X79.138 Y107.228 E35.93020
G1 X79.138 Y94.785 E36.55471
G1 X79.229 Y94.552 E36.56725
G1 X79.543 Y94.238 E36.58952
G1 X79.688 Y94.169 E36.59760
G1 X79.759 Y94.509 F7800.000
G1 F1800
G1 X79.823 Y94.483 E36.60104
G1 X120.177 Y94.483 E38.62626
G1 X120.241 Y94.509 E38.62970
G1 X120.491 Y94.759 E38.64748
G1 X120.517 Y94.823 E38.65093
G1 X120.517 Y107.177 E39.27094
G1 X120.491 Y107.241 E39.27438
G1 X120.241 Y107.491 E39.29217
G1 X120.177 Y107.517 E39.29561
G1 X79.823 Y107.517 E41.32083
G1 X79.759 Y107.491 E41.32427
G1 X79.509 Y107.241 E41.34205
G1 X79.483 Y107.177 E41.34549
G1 X79.483 Y94.823 E41.96551
G1 X79.509 Y94.759 E41.96895
G1 X79.717 Y94.551 E41.98372
G1 X79.929 Y94.828 F7800.000
G1 F1800
G1 X120.071 Y94.828 E43.99833
G1 X120.172 Y94.929 E44.00550
G1 X120.172 Y107.071 E44.61490
G1 X120.071 Y107.172 E44.62207
G1 X79.929 Y107.172 E46.63667
G1 X79.828 Y107.071 E46.64384
G1 X79.828 Y94.929 E47.25324
G1 X79.886 Y94.870 E47.25740
G1 E45.25740 F2400.00000
G92 E0
G1 X119.790 Y106.790 F7800.000
G1 E2.00000 F2400.00000
G1 F1800
G1 X80.210 Y106.790 E3.98636
G1 X80.210 Y95.210 E4.56751
G1 X119.790 Y95.210 E6.55387
G1 X119.790 Y106.730 E7.13201
G1 X119.392 Y106.752 F7800.000
G1 X119.445 Y106.445
G1 F1800
G1 X80.555 Y106.445 E9.08375
G1 X80.555 Y95.555 E9.63029
G1 X119.445 Y95.555 E11.58203
G1 X119.445 Y106.385 E12.12556
G1 X119.100 Y106.100 F7800.000
G1 F1800
G1 X80.900 Y106.100 E14.04268
G1 X80.900 Y95.900 E14.55460
G1 X119.100 Y95.900 E16.47172
G1 X119.100 Y106.040 E16.98063
G1 E14.98063 F2400.00000
G92 E0
G1 X118.997 Y96.704 F7800.000
G1 E2.00000 F2400.00000
G1 F1800
G1 X118.451 Y96.158 E2.03896
G1 X117.960 Y96.158 E2.06370
G1 X118.842 Y97.040 E2.12657
G1 X118.842 Y97.530 E2.15131
G1 X117.470 Y96.158 E2.24917
G1 X116.980 Y96.158 E2.27391
G1 X118.842 Y98.020 E2.40676
G1 X118.842 Y98.511 E2.43150
G1 X116.489 Y96.158 E2.59935
G1 X115.999 Y96.158 E2.62409
G1 X118.842 Y99.001 E2.82692
G1 X118.842 Y99.491 E2.85166
G1 X115.509 Y96.158 E3.08948
G1 X115.018 Y96.158 E3.11422
G1 X118.842 Y99.982 E3.38703
G1 X118.842 Y100.472 E3.41178
G1 X114.528 Y96.158 E3.71958
G1 X114.038 Y96.158 E3.74432
G1 X118.842 Y100.962 E4.08711
G1 X118.842 Y101.453 E4.11185
G1 X113.547 Y96.158 E4.48963
G1 X113.057 Y96.158 E4.51438
G1 X118.842 Y101.943 E4.92715
G1 X118.842 Y102.434 E4.95189
G1 X112.566 Y96.158 E5.39965
G1 X112.076 Y96.158 E5.42439
G1 X118.842 Y102.924 E5.90714
G1 X118.842 Y103.414 E5.93189
G1 X111.586 Y96.158 E6.44963
G1 X111.095 Y96.158 E6.47437
G1 X118.842 Y103.905 E7.02710
G1 X118.842 Y104.395 E7.05184
G1 X110.605 Y96.158 E7.63957
G1 X110.115 Y96.158 E7.66431
G1 X118.842 Y104.885 E8.28702
G1 X118.842 Y105.376 E8.31176
G1 X109.624 Y96.158 E8.96946
G1 X109.134 Y96.158 E8.99420
G1 X118.817 Y105.842 E9.68514
G1 X118.327 Y105.842 E9.70989
G1 X108.643 Y96.158 E10.40083
G1 X108.153 Y96.158 E10.42557
G1 X117.836 Y105.842 E11.11651
G1 X117.346 Y105.842 E11.14125
G1 X107.663 Y96.158 E11.83219
G1 X107.172 Y96.158 E11.85693
G1 X116.856 Y105.842 E12.54787
G1 X116.365 Y105.842 E12.57261
G1 X106.682 Y96.158 E13.26355
G1 X106.192 Y96.158 E13.28829
G1 X115.875 Y105.842 E13.97923
G1 X115.384 Y105.842 E14.00398
G1 X105.701 Y96.158 E14.69492
G1 X105.211 Y96.158 E14.71966
G1 X114.894 Y105.842 E15.41060
G1 X114.404 Y105.842 E15.43534
G1 X104.721 Y96.158 E16.12628
G1 X104.230 Y96.158 E16.15102
G1 X113.913 Y105.842 E16.84196
G1 X113.423 Y105.842 E16.86670
G1 X103.740 Y96.158 E17.55764
G1 X103.249 Y96.158 E17.58238
G1 X112.933 Y105.842 E18.27332
G1 X112.442 Y105.842 E18.29807
G1 X102.759 Y96.158 E18.98901
G1 X102.269 Y96.158 E19.01375
G1 X111.952 Y105.842 E19.70469
G1 X111.462 Y105.842 E19.72943
G1 X101.778 Y96.158 E20.42037
G1 X101.288 Y96.158 E20.44511
G1 X110.971 Y105.842 E21.13605
G1 X110.481 Y105.842 E21.16079
G1 X100.798 Y96.158 E21.85173
G1 X100.307 Y96.158 E21.87647
G1 X109.990 Y105.842 E22.56741
G1 X109.500 Y105.842 E22.59216
G1 X99.817 Y96.158 E23.28310
G1 X99.327 Y96.158 E23.30784
G1 X109.010 Y105.842 E23.99878
G1 X108.519 Y105.842 E24.02352
G1 X98.836 Y96.158 E24.71446
G1 X98.346 Y96.158 E24.73920
G1 X108.029 Y105.842 E25.43014
G1 X107.539 Y105.842 E25.45488
G1 X97.855 Y96.158 E26.14582
G1 X97.365 Y96.158 E26.17056
G1 X107.048 Y105.842 E26.86150
G1 X106.558 Y105.842 E26.88625
G1 X96.875 Y96.158 E27.57719
G1 X96.384 Y96.158 E27.60193
G1 X106.067 Y105.842 E28.29287
G1 X105.577 Y105.842 E28.31761
G1 X95.894 Y96.158 E29.00855
G1 X95.404 Y96.158 E29.03329
G1 X105.087 Y105.842 E29.72423
G1 X104.596 Y105.842 E29.74897
G1 X94.913 Y96.158 E30.43991
G1 X94.423 Y96.158 E30.46465
G1 X104.106 Y105.842 E31.15559
G1 X103.616 Y105.842 E31.18034
G1 X93.932 Y96.158 E31.87128
G1 X93.442 Y96.158 E31.89602
G1 X103.125 Y105.842 E32.58696
G1 X102.635 Y105.842 E32.61170
G1 X92.952 Y96.158 E33.30264
G1 X92.461 Y96.158 E33.32738
G1 X102.145 Y105.842 E34.01832
G1 X101.654 Y105.842 E34.04306
G1 X91.971 Y96.158 E34.73400
G1 X91.481 Y96.158 E34.75874
G1 X101.164 Y105.842 E35.44968
G1 X100.673 Y105.842 E35.47443
G1 X90.990 Y96.158 E36.16537
G1 X90.500 Y96.158 E36.19011
G1 X100.183 Y105.842 E36.88105
G1 X99.693 Y105.842 E36.90579
G1 X90.010 Y96.158 E37.59673
G1 X89.519 Y96.158 E37.62147
G1 X99.202 Y105.842 E38.31241
G1 X98.712 Y105.842 E38.33715
G1 X89.029 Y96.158 E39.02809
G1 X88.538 Y96.158 E39.05283
G1 X98.222 Y105.842 E39.74377
G1 X97.731 Y105.842 E39.76852
G1 X88.048 Y96.158 E40.45946
G1 X87.558 Y96.158 E40.48420
G1 X97.241 Y105.842 E41.17514
G1 X96.750 Y105.842 E41.19988
G1 X87.067 Y96.158 E41.89082
G1 X86.577 Y96.158 E41.91556
G1 X96.260 Y105.842 E42.60650
G1 X95.770 Y105.842 E42.63124
G1 X86.087 Y96.158 E43.32218
G1 X85.596 Y96.158 E43.34692
G1 X95.279 Y105.842 E44.03786
G1 X94.789 Y105.842 E44.06261
G1 X85.106 Y96.158 E44.75355
G1 X84.616 Y96.158 E44.77829
G1 X94.299 Y105.842 E45.46923
G1 X93.808 Y105.842 E45.49397
G1 X84.125 Y96.158 E46.18491
G1 X83.635 Y96.158 E46.20965
G1 X93.318 Y105.842 E46.90059
G1 X92.828 Y105.842 E46.92533
G1 X83.144 Y96.158 E47.61627
G1 X82.654 Y96.158 E47.64102
G1 X92.337 Y105.842 E48.33196
G1 X91.847 Y105.842 E48.35670
G1 X82.164 Y96.158 E49.04764
G1 X81.673 Y96.158 E49.07238
G1 X91.356 Y105.842 E49.76332
G1 X90.866 Y105.842 E49.78806
G1 X81.183 Y96.158 E50.47900
G1 X81.158 Y96.158 E50.48024
G1 X81.158 Y96.624 E50.50374
G1 X90.376 Y105.842 E51.16144
G1 X89.885 Y105.842 E51.18618
G1 X81.158 Y97.115 E51.80889
G1 X81.158 Y97.605 E51.83363
G1 X89.395 Y105.842 E52.42135
G1 X88.905 Y105.842 E52.44609
G1 X81.158 Y98.095 E52.99882
G1 X81.158 Y98.586 E53.02356
G1 X88.414 Y105.842 E53.54130
G1 X87.924 Y105.842 E53.56604
G1 X81.158 Y99.076 E54.04879
G1 X81.158 Y99.566 E54.07353
G1 X87.434 Y105.842 E54.52129
G1 X86.943 Y105.842 E54.54603
G1 X81.158 Y100.057 E54.95880
G1 X81.158 Y100.547 E54.98354
G1 X86.453 Y105.842 E55.36132
G1 X85.962 Y105.842 E55.38606
G1 X81.158 Y101.038 E55.72885
G1 X81.158 Y101.528 E55.75359
G1 X85.472 Y105.842 E56.06139
G1 X84.982 Y105.842 E56.08613
G1 X81.158 Y102.018 E56.35894
G1 X81.158 Y102.509 E56.38368
G1 X84.491 Y105.842 E56.62150
G1 X84.001 Y105.842 E56.64624
G1 X81.158 Y102.999 E56.84907
G1 X81.158 Y103.489 E56.87381
G1 X83.511 Y105.842 E57.04165
G1 X83.020 Y105.842 E57.06639
G1 X81.158 Y103.980 E57.19924
G1 X81.158 Y104.470 E57.22398
G1 X82.530 Y105.842 E57.32184
G1 X82.039 Y105.842 E57.34658
G1 X81.158 Y104.961 E57.40945
G1 X81.158 Y105.451 E57.43419
G1 X81.704 Y105.997 E57.47314
G1 Z0.550 F7800.000
G1 X118.961 Y105.961
G1 F3600
G1 X81.039 Y105.961 E58.75675
G1 X81.039 Y96.039 E59.09258
G1 X118.961 Y96.039 E60.37619
G1 X118.961 Y105.901 E60.70999
G1 X119.368 Y106.368 F7800.000
G1 F3600
G1 X80.632 Y106.368 E62.02116
G1 X80.632 Y95.632 E62.38455
G1 X119.368 Y95.632 E63.69571
G1 X119.368 Y106.308 E64.05708
G1 X119.775 Y106.775 F7800.000
G1 F1800
G1 X80.225 Y106.775 E65.39580
G1 X80.225 Y95.225 E65.78675
G1 X119.775 Y95.225 E67.12547
G1 X119.775 Y106.715 E67.51440
G1 X119.377 Y106.737 F7800.000
G1 X118.012 Y105.839
G1 F1200
G1 X118.656 Y105.195 E67.54537
G1 X118.656 Y104.616 E67.56505
G1 X117.616 Y105.656 E67.61503
G1 X117.038 Y105.656 E67.63471
G1 X118.656 Y104.038 E67.71252
G1 X118.656 Y103.459 E67.73220
G1 X116.459 Y105.656 E67.83784
G1 X115.881 Y105.656 E67.85752
G1 X118.656 Y102.881 E67.99099
G1 X118.656 Y102.302 E68.01066
G1 X115.302 Y105.656 E68.17196
G1 X114.724 Y105.656 E68.19163
G1 X118.656 Y101.724 E68.38075
G1 X118.656 Y101.145 E68.40043
G1 X114.145 Y105.656 E68.61738
G1 X113.567 Y105.656 E68.63705
G1 X118.656 Y100.567 E68.88183
G1 X118.656 Y99.988 E68.90150
G1 X112.988 Y105.656 E69.17410
G1 X112.410 Y105.656 E69.19378
G1 X118.656 Y99.410 E69.49420
G1 X118.656 Y98.831 E69.51388
G1 X111.831 Y105.656 E69.84213
G1 X111.253 Y105.656 E69.86181
G1 X118.656 Y98.253 E70.21789
G1 X118.656 Y97.674 E70.23757
G1 X110.674 Y105.656 E70.62147
G1 X110.096 Y105.656 E70.64115
G1 X118.656 Y97.096 E71.05288
G1 X118.656 Y96.517 E71.07256
G1 X109.517 Y105.656 E71.51211
G1 X108.939 Y105.656 E71.53179
G1 X118.250 Y96.344 E71.97967
G1 X117.672 Y96.344 E71.99935
G1 X108.360 Y105.656 E72.44723
G1 X107.782 Y105.656 E72.46690
G1 X117.093 Y96.344 E72.91478
G1 X116.515 Y96.344 E72.93446
G1 X107.203 Y105.656 E73.38234
G1 X106.625 Y105.656 E73.40202
G1 X115.936 Y96.344 E73.84990
G1 X115.358 Y96.344 E73.86957
G1 X106.047 Y105.656 E74.31746
G1 X105.468 Y105.656 E74.33713
G1 X114.779 Y96.344 E74.78501
G1 X114.201 Y96.344 E74.80469
G1 X104.890 Y105.656 E75.25257
G1 X104.311 Y105.656 E75.27225
G1 X113.622 Y96.344 E75.72013
G1 X113.044 Y96.344 E75.73980
G1 X103.733 Y105.656 E76.18768
G1 X103.154 Y105.656 E76.20736
G1 X112.465 Y96.344 E76.65524
G1 X111.887 Y96.344 E76.67492
G1 X102.576 Y105.656 E77.12280
G1 X101.997 Y105.656 E77.14247
G1 X111.308 Y96.344 E77.59035
G1 X110.730 Y96.344 E77.61003
G1 X101.419 Y105.656 E78.05791
G1 X100.840 Y105.656 E78.07759
G1 X110.151 Y96.344 E78.52547
G1 X109.573 Y96.344 E78.54514
G1 X100.262 Y105.656 E78.99302
G1 X99.683 Y105.656 E79.01270
G1 X108.994 Y96.344 E79.46058
G1 X108.416 Y96.344 E79.48026
G1 X99.105 Y105.656 E79.92814
G1 X98.526 Y105.656 E79.94781
G1 X107.837 Y96.344 E80.39570
G1 X107.259 Y96.344 E80.41537
